svg/fluentui-system-icons/ic_fluent_eye_28_filled.svg

<svg width="28" height="28" viewBox="0 0 28 28" fill="none" xmlns="http://www.w3.org/2000/svg">
<path d="M25.2565 16L25.2624 16H25.2524L25.2565 16ZM24.5522 15.48C24.6516 15.798 24.9388 15.9975 25.2565 16C25.3255 15.9992 25.404 15.9796 25.4824 15.96C25.8725 15.84 26.0926 15.41 25.9625 15.02C25.9325 14.93 22.9319 6 14 6C5.06811 6 2.06747 14.93 2.03747 15.02C1.90744 15.41 2.12749 15.83 2.51757 15.96C2.91765 16.09 3.33774 15.87 3.46777 15.48L3.46956 15.4748C3.60329 15.0852 6.20674 7.5 14.01 7.5C21.8517 7.5 24.4422 15.15 24.5522 15.48ZM9 16C9 13.2386 11.2386 11 14 11C16.7614 11 19 13.2386 19 16C19 18.7614 16.7614 21 14 21C11.2386 21 9 18.7614 9 16Z" fill="#212121"/>
</svg>

<svg xmlns="http://www.w3.org/2000/svg" width="28" height="28"><path d="M25.256 16h.006-.01.005Zm-.704-.52c.1.318.387.518.704.52.07 0 .148-.02.226-.04.39-.12.61-.55.48-.94C25.932 14.93 22.932 6 14 6S2.067 14.93 2.037 15.02c-.13.39.09.81.48.94.4.13.82-.09.95-.48l.003-.005c.133-.39 2.737-7.975 10.54-7.975 7.842 0 10.432 7.65 10.542 7.98ZM9 16a5 5 0 1 1 10 0 5 5 0 0 1-10 0Z"/></svg>
